X: 3374
T: Benbulben's Shadow
R: reel
M: 4/4
K: Bminor
fbag ~f3d|edBd e2dc|Bbag f2af|deed egfe|
fbag ~f3d|edBA BAF2|GABd cedc|1 B2BA Bcde:|2 B2BA Bcdc||
Bdfd Bdfd|Bdfd edBA|Bdfd Bdfd|e2dc B2BA|
Bdfd bdfd|Adfd Gdfa|b2ag ~f3d|~e2dc B2BA|
Bdfd bdfd|~e3f edcA|Bbag f2fd|~e2dc B2BA|
Bdfd bdfd|Adfd Gdfa|b2ag ~f3d|~e2dc Bcde||

